X:168
T: ICH SAH IM GARTEN HOLD UND SCHOEN
N: B0655
O: Europa, Mitteleuropa, Deutschland, Westerwald
R: Moral - Lied
M: 6/8
L: 1/8
K: E
B | B2eG2B | GFGE2
G | B2FFGA | cBBG2
E | B2BBcd | edcB3 | GFGE2
G | B2FFAc | B2AG2

@@@ Tune index: 2386
